!!!COM: Gabriel Faure/
!!!CNT: Francais
!!!TXO: Francais
!!!OTL: Seule!
!!!OPS: Op. 3
!!!ONM: No. 1
!!!LYR: The/ophile Gautier
!!!ENC: Jacob Pegg
!!!YOR: Album of Twenty Songs (Vingt Me/lodies,) Volume I
!!!YOR: Edward B. Marks Music Corporation, RCA Building, Radio
!!!YOR: City, New York 20, N.Y.
!!!ODT: 1871/
!!NB: Vocal melody and text only encoded.
!!NB: First instance of melodic material only encoded.
**kern	**silbe
*clef G2	*
*k[b-e-]	*
*M4/4	*
*MM[andante]	*
!!created: 8/20/03 13:46
!!proofed and posted: 8/20/03 14:56
!!edit time: 18 min.
=1	=1
1r	.
=2	=2
2r	.
2r	.
=3	=3
{4g	{Dans
8g	un
8g	bai-
4.cc	-ser
8b-	l'onde
=4	=4
8a	au
8b-	ri-
2a	-va-
4a	-ge
=5	=5
2b-	Dit
4.f#	ses
8f#	dou-
=6	=6
1g}	-leurs!}
=7	=7
{4b-	{Pour
8b-	con-
8b-	-so-
4ee-	-ler
4dd-	la
=8	=8
8cc	fleur
8dd-	sau-
2cc	-va-
4cc	-ge
=9	=9
2dd-	L'aube
4.a	a
8a	des
=10	=10
1b-}	pleurs.}
=11	=11
{4dd-	{Le
8dd-	vent
8dd-	du
4dd-	soir
4dd-	con-
=12	=12
8cc	-te
8dd-	sa
2cc	plain-
4b-	-te
=13	=13
2a-	Aux
4.b-	vieux
8b-	cy-
=14	=14
1cc}	-pre\s,}
=15	=15
{4cc	{La
8dd	tour-
8ee-	-te-
4dd	-relle
4b-	au
=16	=16
4.g	te/-
8a	-re/-
4b-	-bin-
4cc	-the
=17	=17
2dd	Ses
4.a	longs
8b-	re-
=18	=18
1g}	-grets,}
*-	*-
